img/svg/purse.svg

<svg width="64" height="64" viewBox="0 0 64 64" fill="none" xmlns="http://www.w3.org/2000/svg">
<path d="M61.1876 27.3115H60.2506V24.4985V14.4985C60.2506 11.2246 57.587 8.56093 54.3131 8.56093H28.5658L11.1955 3.59794C11.1905 3.59657 11.1854 3.59582 11.1804 3.59444C11.1752 3.59307 11.1704 3.59107 11.1652 3.58982C11.1547 3.58719 11.1444 3.58594 11.134 3.58369C11.1179 3.58032 11.1017 3.57682 11.0856 3.57419C11.071 3.57182 11.0566 3.57032 11.042 3.56857C11.025 3.56657 11.0081 3.56482 10.9912 3.56382C10.9775 3.56307 10.9639 3.56294 10.9501 3.56269C10.9326 3.56244 10.9152 3.56232 10.8979 3.56307C10.885 3.56357 10.8721 3.56482 10.8594 3.56582C10.8415 3.56732 10.8236 3.56894 10.806 3.57157C10.794 3.57332 10.7821 3.57557 10.7702 3.57769C10.752 3.58094 10.734 3.58444 10.7161 3.58882C10.705 3.59157 10.6941 3.59469 10.6831 3.59782C10.6649 3.60307 10.6469 3.60844 10.6289 3.61469C10.6187 3.61832 10.6087 3.62219 10.5986 3.62619C10.5805 3.63319 10.5625 3.64057 10.5449 3.64869C10.5355 3.65307 10.5264 3.65782 10.5171 3.66244C10.4995 3.67132 10.4821 3.68032 10.4651 3.69044C10.4562 3.69557 10.4477 3.70107 10.439 3.70657C10.4222 3.71707 10.4057 3.72782 10.3897 3.73944C10.3814 3.74544 10.3732 3.75194 10.365 3.75832C10.3496 3.77019 10.3344 3.78232 10.3197 3.79519C10.3115 3.80244 10.3036 3.81007 10.2956 3.81757C10.2819 3.83057 10.2682 3.84357 10.2552 3.85732C10.2471 3.86594 10.2395 3.87494 10.2316 3.88394C10.2197 3.89757 10.208 3.91132 10.1969 3.92569C10.1889 3.93607 10.1814 3.94669 10.1737 3.95732C10.1639 3.97119 10.1541 3.98519 10.1451 3.99957C10.1374 4.01182 10.1302 4.02457 10.1231 4.03719C10.1152 4.05107 10.1074 4.06507 10.1002 4.07944C10.0932 4.09344 10.087 4.10782 10.0806 4.12219C10.0744 4.13632 10.0682 4.15044 10.0627 4.16494C10.057 4.18019 10.052 4.19582 10.0469 4.21157C10.0436 4.22169 10.0396 4.23119 10.0366 4.24144C10.0351 4.24657 10.0345 4.25157 10.0331 4.25657C10.0317 4.26169 10.0297 4.26657 10.0285 4.27169L8.95648 8.56068H5.93811C2.67075 8.56068 0.01175 11.2136 0.000999998 14.4785C0.000874998 14.4853 0 14.4917 0 14.4983V46.9982C0 47.5157 0.421249 47.9357 0.937498 47.9357C1.455 47.9357 1.875 47.5157 1.875 46.9982V18.8224C2.93799 19.8219 4.36724 20.4362 5.93811 20.4362H54.3131C54.3143 20.4362 54.3153 20.436 54.3164 20.436C56.5549 20.4378 58.3756 22.2595 58.3756 24.4987V31.0616H48.0617C48.061 31.0616 48.0605 31.0618 48.0599 31.0618C48.0328 31.0618 48.0058 31.0634 47.9789 31.0658C47.949 31.0684 47.9195 31.0726 47.8905 31.078C47.8862 31.0788 47.8819 31.0791 47.8775 31.08C47.853 31.0849 47.829 31.0914 47.8052 31.0981C47.7999 31.0996 47.7945 31.1006 47.7894 31.1023C47.7682 31.1088 47.7475 31.1165 47.7269 31.1244C47.719 31.1274 47.711 31.1299 47.7032 31.1331C47.6859 31.1403 47.6693 31.1486 47.6527 31.1568C47.6417 31.162 47.6305 31.1669 47.6198 31.1725C47.6068 31.1794 47.5945 31.1873 47.582 31.1948C47.5682 31.203 47.554 31.211 47.5405 31.22C47.5314 31.226 47.523 31.2329 47.5143 31.2393C47.4983 31.2508 47.4822 31.2621 47.4669 31.2748C47.4603 31.2803 47.4542 31.2864 47.4478 31.292C47.4314 31.3063 47.415 31.3204 47.3995 31.3359C47.3904 31.345 47.3822 31.355 47.3735 31.3645C47.3614 31.3776 47.3489 31.3905 47.3374 31.4045C47.318 31.4281 47.2999 31.4526 47.2829 31.478C47.2825 31.4784 47.2822 31.4789 47.2819 31.4794L42.2822 38.9795C42.2473 39.0317 42.2178 39.0871 42.1944 39.1447C42.1855 39.1662 42.1784 39.1881 42.1713 39.2099C42.1692 39.2165 42.1664 39.2229 42.1644 39.2295C42.1574 39.2526 42.152 39.276 42.1469 39.2993C42.1455 39.3054 42.1438 39.3114 42.1425 39.3175C42.1384 39.3385 42.1357 39.3596 42.133 39.3807C42.1319 39.3897 42.1302 39.3988 42.1293 39.4079C42.1275 39.4253 42.1272 39.4425 42.1265 39.4599C42.1259 39.4731 42.1248 39.4864 42.1248 39.4997C42.1248 39.5126 42.1259 39.5255 42.1264 39.5384C42.127 39.5561 42.1275 39.574 42.1293 39.5918C42.1302 39.6004 42.1318 39.609 42.1329 39.6176C42.1357 39.6391 42.1384 39.6606 42.1427 39.682C42.1438 39.6879 42.1455 39.6936 42.1469 39.6995C42.152 39.723 42.1575 39.7465 42.1645 39.7699C42.1665 39.7765 42.1693 39.7829 42.1714 39.7896C42.1785 39.8114 42.1857 39.8333 42.1945 39.8548C42.218 39.9123 42.2475 39.9678 42.2825 40.0201L47.2822 47.5191C47.2824 47.5195 47.2827 47.5197 47.2829 47.5201C47.303 47.55 47.325 47.5785 47.3483 47.6059C47.3559 47.6149 47.364 47.6232 47.3719 47.6317C47.3878 47.6491 47.4043 47.6659 47.4214 47.682C47.4315 47.6915 47.4415 47.7007 47.4518 47.7096C47.47 47.7252 47.4889 47.7399 47.5083 47.7541C47.517 47.7605 47.5254 47.7675 47.5343 47.7735C47.5624 47.7926 47.5915 47.8102 47.6217 47.8262C47.6293 47.8302 47.6372 47.8336 47.6448 47.8374C47.6688 47.8494 47.6933 47.8605 47.7184 47.8704C47.7282 47.8742 47.7379 47.8777 47.7478 47.8812C47.7717 47.8897 47.7959 47.8972 47.8207 47.9039C47.8308 47.9065 47.8408 47.9092 47.851 47.9117C47.8764 47.9176 47.9022 47.9221 47.9283 47.9259C47.9378 47.9272 47.9472 47.9291 47.9567 47.9302C47.9889 47.9339 48.0217 47.9359 48.0549 47.9361C48.0575 47.9361 48.0602 47.9366 48.0629 47.9366C48.0634 47.9366 48.064 47.9365 48.0647 47.9365H58.376V54.5C58.376 56.7402 56.5535 58.5627 54.3135 58.5627H5.93861C3.69862 58.5627 1.87612 56.7402 1.87612 54.5C1.87612 54.4951 1.8755 54.4903 1.87537 54.4855V50.7487C1.87537 50.2325 1.45537 49.8112 0.937873 49.8112C0.421624 49.8112 0.000374999 50.2325 0.000374999 50.7487V54.5C0.000374999 54.5097 0.0015 54.5192 0.001875 54.5288C0.0175 57.7896 2.67437 60.4377 5.93861 60.4377H54.3135C57.5871 60.4377 60.2505 57.7746 60.251 54.501C60.251 54.5008 60.251 54.5007 60.251 54.5005V47.9365H61.188C62.7385 47.9365 64 46.675 64 45.1245V30.1235C63.9996 28.573 62.7381 27.3115 61.1876 27.3115ZM11.6125 5.66706L28.1548 10.3937C28.1556 10.3939 28.1564 10.3941 28.1572 10.3943L39.2442 13.562H9.63923L11.6125 5.66706ZM58.3755 20.1743C57.3126 19.175 55.8836 18.5609 54.3131 18.5609C54.3115 18.5609 54.31 18.5612 54.3083 18.5612H5.93811C3.69799 18.5612 1.8755 16.7387 1.8755 14.4985C1.8755 12.2584 3.69799 10.4359 5.93811 10.4359H8.48786L7.70661 13.562H5.93836C5.42061 13.562 5.00087 13.9818 5.00087 14.4995C5.00087 15.0173 5.42061 15.437 5.93836 15.437H8.43536C8.43661 15.437 8.43798 15.4373 8.43936 15.4373C8.44036 15.4373 8.44136 15.437 8.44223 15.437H45.9348C45.936 15.437 45.9372 15.4373 45.9383 15.4373C45.9393 15.4373 45.9403 15.437 45.9413 15.437H53.062C53.5798 15.437 53.9995 15.0173 53.9995 14.4995C53.9995 13.9818 53.5798 13.562 53.062 13.562H46.0692L35.1281 10.4359H54.313C56.553 10.4359 58.3755 12.2584 58.3755 14.4985V20.1743ZM62.1246 45.124C62.1246 45.6406 61.7043 46.061 61.1876 46.061H48.5634L44.1885 39.4992L48.5634 32.9365H61.1876C61.2008 32.9365 61.2135 32.935 61.2265 32.9345C61.541 32.9301 61.843 32.8741 62.1246 32.7744V45.124ZM61.1876 31.0605C61.1811 31.0605 61.1748 31.0614 61.1683 31.0615H60.2506V29.1865H61.1876C61.7043 29.1865 62.1246 29.6069 62.1246 30.1235C62.1246 30.6401 61.7043 31.0605 61.1876 31.0605Z" fill="#68A7CF"/>
<path d="M51.8122 36.0615C49.9168 36.0615 48.3748 37.6036 48.3748 39.4991C48.3748 41.3946 49.9168 42.9366 51.8122 42.9366C53.7077 42.9366 55.2497 41.3946 55.2497 39.4991C55.2497 37.6036 53.7077 36.0615 51.8122 36.0615ZM51.8122 41.0616C50.9506 41.0616 50.2498 40.3608 50.2498 39.4991C50.2498 38.6375 50.9506 37.9365 51.8122 37.9365C52.6739 37.9365 53.3747 38.6375 53.3747 39.4991C53.3747 40.3608 52.6739 41.0616 51.8122 41.0616Z" fill="#68A7CF"/>
</svg>

<svg width="64" height="64" viewBox="0 0 64 64" fill="none" xmlns="http://www.w3.org/2000/svg"><path d="M61.188 27.311h-.937V14.498a5.944 5.944 0 0 0-5.938-5.937H28.566l-17.37-4.963-.016-.004c-.005 0-.01-.003-.015-.004-.01-.003-.02-.004-.031-.006l-.048-.01-.044-.005a.88.88 0 0 0-.05-.005l-.042-.001h-.052l-.039.003a.832.832 0 0 0-.053.006l-.036.006a.871.871 0 0 0-.054.01l-.033.01a1.06 1.06 0 0 0-.138.05l-.028.014a.845.845 0 0 0-.052.028l-.026.017a.851.851 0 0 0-.05.032l-.024.02a.934.934 0 0 0-.045.036l-.024.023a1.044 1.044 0 0 0-.04.04.903.903 0 0 0-.058.068.915.915 0 0 0-.097.154c-.008.013-.014.028-.02.042a.325.325 0 0 0-.018.043l-.016.047-.01.03-.004.015-.005.015L8.956 8.56H5.938a5.944 5.944 0 0 0-5.937 5.918l-.001.02v32.5a.939.939 0 0 0 1.875 0V18.821a5.915 5.915 0 0 0 4.063 1.614h48.378a4.067 4.067 0 0 1 4.06 4.063v6.563H48.06a.911.911 0 0 0-.17.016l-.013.002a.967.967 0 0 0-.072.018l-.016.004a.964.964 0 0 0-.062.022l-.024.01c-.017.006-.034.015-.05.023l-.033.015-.038.023-.041.025c-.01.006-.018.013-.027.02a.382.382 0 0 0-.047.035l-.02.017c-.016.014-.032.028-.047.044-.01.009-.018.019-.026.029l-.037.04a.93.93 0 0 0-.054.073l-.001.001-5 7.5a.922.922 0 0 0-.088.166c-.009.021-.016.043-.023.065l-.007.02a.913.913 0 0 0-.017.07l-.005.018c-.004.02-.006.042-.009.063l-.004.027c-.002.017-.002.035-.002.052l-.002.04.001.038.003.054.004.026c.003.021.005.043.01.064a.94.94 0 0 0 .022.088l.006.02a.937.937 0 0 0 .111.23l5 7.5c.021.03.043.058.066.086l.024.026a.94.94 0 0 0 .136.122l.026.02a.93.93 0 0 0 .088.052l.023.011a.917.917 0 0 0 .176.067l.03.008a.94.94 0 0 0 .077.014l.029.004a.908.908 0 0 0 .098.006h10.321V54.5a4.067 4.067 0 0 1-4.063 4.063H5.94A4.067 4.067 0 0 1 1.876 54.5v-3.751a.939.939 0 0 0-1.876 0V54.5l.002.029a5.944 5.944 0 0 0 5.937 5.909h48.374a5.944 5.944 0 0 0 5.938-5.937v-6.564h.937A2.815 2.815 0 0 0 64 45.123v-15a2.816 2.816 0 0 0-2.812-2.813zM11.612 5.668l16.543 4.727h.002l11.087 3.168H9.64l1.974-7.895zm46.764 14.507a5.914 5.914 0 0 0-4.063-1.613H5.938a4.067 4.067 0 0 1-4.063-4.063 4.067 4.067 0 0 1 4.063-4.062h2.55l-.781 3.126H5.938a.938.938 0 0 0 0 1.875h47.124a.937.937 0 1 0 0-1.875h-6.993l-10.94-3.126h19.184a4.067 4.067 0 0 1 4.063 4.063v5.675zm3.749 24.95c0 .517-.42.937-.937.937H48.563L44.188 39.5l4.375-6.563h12.625l.038-.002a2.79 2.79 0 0 0 .899-.16v12.35zm-.937-14.064l-.02.002h-.917v-1.876h.937a.938.938 0 0 1 0 1.875z" fill="#68A7CF"/><path d="M51.812 36.062a3.441 3.441 0 0 0-3.437 3.437 3.441 3.441 0 0 0 3.437 3.438 3.441 3.441 0 0 0 3.438-3.438 3.441 3.441 0 0 0-3.438-3.438zm0 5a1.564 1.564 0 0 1-1.562-1.563c0-.861.7-1.563 1.562-1.563.862 0 1.563.702 1.563 1.563 0 .862-.701 1.563-1.563 1.563z" fill="#68A7CF"/></svg>
